X:105
T:Young Fox, The
M:6/8
L:1/8
B:Thompson's Compleat Collection of 200 Favourite Country Dances, vol. 1 (London, 1757)
Z:Transcribed and edited by Fynnian Titford-Mock, 2007
Z:abc's:AK/Fiddler's Companion
K:D
d3 f2d|gec d2A|(B/c/d)c dAF|BGE AFD|(d/e/f)e fdB|ecA =GBd|f3 edc|dcB A3:|
|:(c/d/e)d dcA|Ace edc|(d/e/f)e fdB|Bd(f f)ed|(e/f/g)f gec|fdB ^Ace|gfe dcB|gf^A B2c|
(B/c/d)c dAF|DA=c BAG|(B/c/d)B geg|Bed "tr"c3|(f/g/a)f gec|dB^G ABc|dAF Bgf|edc d3:|

